X:1
T:Malmö, SM
T:Malmö, SM
T:Hugh Henry McGranahan, 1886
T:Public Domain Courtesy of the Cyber Hymnal™
C:Hugh Henry McGranahan, 1886
Z:Public Domain
Z:Courtesy of the Cyber Hymnal™
%%score ( 1 2 ) ( 3 4 )
L:1/8
Q:1/4=102
M:3/4
K:F
V:1 treble 
V:2 treble 
V:3 bass 
V:4 bass 
V:1
 [FA]2 | [FA][CF] [CG]2 [B,E]2 | [A,F]4 [^CE]2 | D[DF] [CE]2 [=B,D]2 | C4 [CG]2 | %5
 [CA][CA] [CF]2 [FA]2 | [EB][EB] [EG]2 [Fc]2 | [Fc][FB] [FA]2 [EG]2 | [CF]4 |] %9
V:2
 x2 | x6 | x6 | D x5 | C4 x2 | x6 | x6 | x6 | x4 |] %9
V:3
 [F,C]2 | [F,C][F,A,] [C,B,]2 [C,G,]2 | [D,F,]4 [A,,G,]2 | [B,,F,][B,,F,] [G,,G,]2 (G,F,) | %4
 [C,E,]4 [C,E,]2 | F,F, [F,A,]2 [F,C]2 | [C,C][C,C] [C,C]2 [A,,_E]2 | [B,,E][B,,D] [C,C]2 [C,B,]2 | %8
 [F,A,]4 |] %9
V:4
 x2 | x6 | x6 | x4 G,,2 | x6 | F,F, x4 | x6 | x6 | x4 |] %9

